src/raw/task-list/icon_24.svg

<svg width="24" height="25" viewBox="0 0 24 25" fill="none" xmlns="http://www.w3.org/2000/svg">
<path d="M21.371 17.39L16.379 22.383C16.1003 22.6615 15.7694 22.8824 15.4053 23.0331C15.0412 23.1837 14.651 23.2612 14.257 23.261H4.75C3.95435 23.261 3.19129 22.9449 2.62868 22.3823C2.06607 21.8197 1.75 21.0566 1.75 20.261V3.76099C1.75 2.96534 2.06607 2.20228 2.62868 1.63967C3.19129 1.07706 3.95435 0.760986 4.75 0.760986H19.25C20.0456 0.760986 20.8087 1.07706 21.3713 1.63967C21.9339 2.20228 22.25 2.96534 22.25 3.76099V15.269C22.2498 16.0646 21.9336 16.8275 21.371 17.39Z" stroke="#71717A" stroke-width="1.5" stroke-linecap="round" stroke-linejoin="round"/>
<path d="M15 23V19C15 18.2044 15.3161 17.4413 15.8787 16.8787C16.4413 16.3161 17.2044 16 18 16H21.8594" stroke="#71717A" stroke-width="1.5" stroke-linecap="round" stroke-linejoin="round"/>
<path d="M6 19H10" stroke="#71717A" stroke-width="1.5" stroke-linecap="round" stroke-linejoin="round"/>
<path d="M6 14H14" stroke="#71717A" stroke-width="1.5" stroke-linecap="round" stroke-linejoin="round"/>
<path d="M6 1.001V8.751L9 6.501L12 8.75V1" stroke="#71717A" stroke-width="1.5" stroke-linecap="round" stroke-linejoin="round"/>
</svg>

<svg xmlns="http://www.w3.org/2000/svg" width="24" height="25" fill="none"><path stroke="#71717A" stroke-linecap="round" stroke-linejoin="round" stroke-width="1.5" d="m21.371 17.39-4.992 4.993a3.001 3.001 0 0 1-2.122.878H4.75a3 3 0 0 1-3-3v-16.5a3 3 0 0 1 3-3h14.5a3 3 0 0 1 3 3v11.508a3 3 0 0 1-.879 2.121Z"/><path stroke="#71717A" stroke-linecap="round" stroke-linejoin="round" stroke-width="1.5" d="M15 23v-4a3 3 0 0 1 3-3h3.86M6 19h4M6 14h8M6 1.001v7.75l3-2.25 3 2.249V1"/></svg>
